X: 806
T: Drive the Cows Home.
C:F. O'Neill.
B:O'Neill's Music of Ireland
N:O'Neill's - 806
Z:Transcribed by Stephen Foy (shf@access.digex.net)
Z:abc 1.6
R:Jig
M:6/8
K:A
d|efe edB|dBA A2 B|GAG GBd|BAG G2 g|fed efg|aga e2 f|
|=gfg dBd|ecA A2:|e|aga efg|aga e2 f|gfg def|gfg d2 e|
[1 aga efg|aga e2 f|=gfg dBd|ecA A2:|[2 agf gfe|fed edB|\
=gfg dBd|ecA A2|]


